svg/fluentui-system-icons/ic_fluent_highlight_24_regular.svg

<svg width="24" height="24" viewBox="0 0 24 24" fill="none" xmlns="http://www.w3.org/2000/svg">
<path d="M20.2586 2.00391C20.6383 2.00425 20.9518 2.28669 21.0011 2.65281L21.0079 2.75458L21.0038 7.25229C21.0009 8.40861 20.1271 9.36025 19.0029 9.48624L19.0025 11.746C19.0025 12.9369 18.0773 13.9117 16.9065 13.9908L16.7525 13.996L16.501 13.9959L16.5018 16.7876C16.5018 17.6026 16.0617 18.3489 15.3601 18.7458L15.2058 18.8254L8.57108 21.9317C8.10485 22.1499 7.57412 21.8446 7.5096 21.3531L7.50307 21.2524L7.503 13.9959L7.25 13.996C6.05914 13.996 5.08436 13.0708 5.00519 11.9001L5 11.746L5.00044 9.48671C3.92882 9.36846 3.08392 8.49764 3.00589 7.4144L3 7.25039V2.75391C3 2.33969 3.33579 2.00391 3.75 2.00391C4.1297 2.00391 4.44349 2.28606 4.49315 2.65214L4.5 2.75391V7.25039C4.5 7.63009 4.78215 7.94388 5.14823 7.99355L5.25 8.00039L18.7513 8.00039C19.1316 7.99977 19.4461 7.71712 19.4967 7.35138L19.5038 7.24972L19.5079 2.75323C19.5083 2.33902 19.8444 2.00353 20.2586 2.00391ZM15.001 13.9959H9.003L9.00307 20.0731L14.5698 17.4669C14.8004 17.3589 14.9582 17.1427 14.994 16.8953L15.0018 16.7876L15.001 13.9959ZM17.502 9.49991H6.5V11.746C6.5 12.1257 6.78215 12.4395 7.14823 12.4892L7.25 12.496H16.7525C17.1322 12.496 17.446 12.2139 17.4956 11.8478L17.5025 11.746L17.502 9.49991Z" fill="#212121"/>
</svg>

<svg xmlns="http://www.w3.org/2000/svg" width="24" height="24"><path d="M20.259 2.004a.75.75 0 0 1 .742.649l.007.102-.004 4.497a2.254 2.254 0 0 1-2.001 2.234v2.26a2.25 2.25 0 0 1-2.096 2.245l-.154.005H16.5v2.792a2.25 2.25 0 0 1-1.14 1.958l-.155.08-6.635 3.106a.75.75 0 0 1-1.061-.579l-.007-.1v-7.257H7.25A2.25 2.25 0 0 1 5.005 11.9L5 11.746v-2.26a2.25 2.25 0 0 1-1.994-2.072L3 7.25V2.754a.75.75 0 0 1 1.493-.102l.007.102V7.25c0 .38.282.694.648.744L5.25 8h13.501c.38 0 .695-.283.746-.649l.007-.101.004-4.497a.75.75 0 0 1 .75-.75ZM15 13.996H9.003v6.077l5.567-2.606a.75.75 0 0 0 .424-.572l.008-.107L15 13.996ZM17.502 9.5H6.5v2.246c0 .38.282.694.648.743l.102.007h9.503a.75.75 0 0 0 .743-.648l.007-.102-.001-2.246Z"/></svg>
